X: 092
T: Beal Bocht (Poor Mouth) (reel)
N: 020083
C: BB
R: reel
Q: 380
M: 4/4
L: 1/8
K: Em
"Em"E3 B "G"GFGA|"Bm"BABd "Em"e2 ef|"G"gefd "Em"efdB|"Am"AcBA "G"GB"D"AF |
"Em"E3 B "G"GFGA|"Bm"BABd "Em"e2 ef|"G"gbge "Bm"fdBc|"D"dBAF "Em"GE E2 :|
"Em"eBBe "G"gBBg|"D"fddf a2 ^ga|"Em"b2 ge b2 ge | "Am"AcBA "Em"GE E2 |
"Em"eBBe "G"gBBg|"D"fddf a2 ^ga|"Bm"bagf "Em"egfe | "D"dBAF "Em"GE E2 :|
%%%%%%%%%%%%%%%%%%%%%%%%%%%%%%%%%%%%%%%%%%%
